packages/kaspersky-hexa-ui-icons/src/iconsSVGs/16/StatusWarningSolid.svg

<svg width="16" height="16" viewBox="0 0 16 16" fill="none" xmlns="http://www.w3.org/2000/svg">
<path fill-rule="evenodd" clip-rule="evenodd" d="M10.2231 3.01809C9.27831 1.26903 6.76881 1.26904 5.82398 3.01809L1.49264 11.0362C0.592845 12.7018 1.79905 14.7244 3.69222 14.7244H12.3549C14.2481 14.7244 15.4543 12.7018 14.5545 11.0362L10.2231 3.01809ZM8.00006 5.00122C8.41428 5.00126 8.75004 5.33707 8.75 5.75129L8.7497 9.24341C8.74966 9.65763 8.41385 9.99338 7.99964 9.99335C7.58542 9.99331 7.24966 9.6575 7.2497 9.24328L7.25 5.75116C7.25004 5.33694 7.58585 5.00119 8.00006 5.00122ZM8.85015 11.8556C8.85015 12.3251 8.46959 12.7056 8.00015 12.7056C7.5307 12.7056 7.15015 12.3251 7.15015 11.8556C7.15015 11.3862 7.5307 11.0056 8.00015 11.0056C8.46959 11.0056 8.85015 11.3862 8.85015 11.8556Z" fill="black"/>
</svg>

<svg xmlns="http://www.w3.org/2000/svg" width="16" height="16" fill="none" viewBox="0 0 16 16"><path fill="#000" fill-rule="evenodd" d="M10.2231 3.018c-.9448-1.749-3.4543-1.749-4.3991 0l-4.3314 8.0182c-.8998 1.6656.3065 3.6882 2.1996 3.6882h8.6627c1.8932 0 3.0994-2.0226 2.1996-3.6882zm-2.223 1.9832a.75.75 0 0 1 .7499.75l-.0003 3.4922a.75.75 0 1 1-1.5-.0001L7.25 5.7512a.75.75 0 0 1 .75-.75m.85 6.8544a.85.85 0 0 1-.85.85.85.85 0 1 1 .85-.85"/></svg>
